X: 1
T: Paardeburg
Z: Mix O'Lydian
S: https://thesession.org/tunes/13455#setting23755
R: reel
M: 4/4
L: 1/8
K: Dmaj
|: ag | f4 gfef | A2 d2 d2 ef | g3 e c2 ec | A2 a2 agfa |
f4 gfef | A2 d2 d2 ef | g3 A cAce | d4 d2 :|
|: cd | e3 f gece | A2 d2 d2 ef | g2 A2 c2 e2 | dcdf A2 cd |
e3 f gece | A2 d2 d2 ef | g3 A cAce | d4 d2 :|
|: ag | f2 A2 d2 A2 | dcde f4 | g2 A2 c2 e2 | dcdf A2 ag |
f2 A2 d2 A2 | dcde f4 | g3 A cAce | d4 d2 :|
|: ag | fadf A2 d2 | fdfg a2 gf | gece A2 e2 | dcdf A2 ag |
fadf A2 d2 | fdfg a2 gf | g3 A cAce | d4 d2 :|
